public/img/fonts/cookie.svg

<svg xmlns="http://www.w3.org/2000/svg" width="131.22" height="54.54" viewBox="4.6 4.7 131.22 54.54"><path d="M24.04 59.24q-2.22 0-4.53-.48t-4.59-1.44q-3.72-1.62-6-4.23-2.28-2.61-3.3-5.91-1.02-3.3-1.02-6.9 0-3.78.93-7.56t2.61-7.23q1.68-3.45 3.78-6.15-.42-1.56-.69-3.6-.27-2.04-.27-4.14 0-3.18.72-6.06.24-.84.84-.84.42 0 .42.6 0 .36-.06.54-.12.9-.21 1.86-.09.96-.09 1.98 0 2.04.24 4.02.24 1.98.54 3.66 4.38-5.7 10.05-8.49 5.67-2.79 11.91-2.79 1.62 0 3.12.18 4.8.54 7.86 2.37 3.06 1.83 4.53 4.47 1.47 2.64 1.47 5.58 0 2.88-1.32 5.7-1.32 2.82-3.84 5.13-2.52 2.31-6.15 3.72-3.63 1.41-8.19 1.41-1.02 0-2.04-.06t-2.22-.24q-4.74-.72-8.64-3.06-3.9-2.34-6.3-7.2-.48.6-1.32 2.43-.84 1.83-1.68 4.41t-1.44 5.61q-.6 3.03-.6 6.09 0 2.94.78 5.67t2.7 4.8q1.92 2.07 5.22 3.09 1.62.48 3.36.72 1.74.24 3.54.24 3.48 0 6.9-.9 3.42-.9 6.36-2.64 3.9-2.28 6-5.31t3.9-6.81q.24-.6.66-.6.3 0 .3.42 0 .3-.24.72-1.26 2.64-2.52 4.83t-2.94 4.05q-1.68 1.86-4.26 3.66-2.94 2.04-6.6 3.36-3.66 1.32-7.68 1.32Zm8.4-26.16q4.14 0 7.32-1.23 3.18-1.23 5.37-3.24 2.19-2.01 3.3-4.47 1.11-2.46 1.11-4.98 0-2.46-1.14-4.68-1.14-2.22-3.45-3.81-2.31-1.59-5.91-2.07-1.32-.18-2.64-.18-4.08 0-8.01 1.71-3.93 1.71-7.41 4.8t-6.18 7.23q2.1 5.22 5.91 7.68t8.73 3.06q1.56.18 3 .18Zm17.64 19.98q-2.28 0-3.36-1.53t-1.08-3.75q0-2.7 1.26-5.64 1.2-2.76 3.06-5.04 1.86-2.28 4.02-3.69Q56.14 32 58.18 32q2.28 0 3.36 1.5t1.08 3.78q0 2.76-1.26 5.64-.72 1.62-2.04 3.57-1.32 1.95-3 3.57.36.66 1.02 1.11.66.45 1.8.45 1.44 0 2.73-1.2t2.37-2.91q1.08-1.71 1.92-3.45.84-1.74 1.38-2.82.18-.36.6-.36.24 0 .36.21t-.06.63q-.36.9-1.2 2.67t-2.04 3.66q-1.2 1.89-2.76 3.21-1.56 1.32-3.48 1.32-1.32 0-2.28-.45-.96-.45-1.56-1.11-1.26.96-2.52 1.5t-2.52.54Zm.9-1.32q1.62 0 3.48-1.56-.48-.72-.72-1.5t-.24-1.44q0-1.08.51-1.86t1.59-.78q.78 0 1.29.57t.51 1.29q0 .18-.03.33-.03.15-.09.33 1.02-1.38 1.92-3.24 1.98-4.26 1.98-7.02 0-1.38-.54-2.16-.54-.78-1.62-.78-1.26 0-2.73 1.08t-2.82 2.88q-1.35 1.8-2.37 4.02-.96 2.04-1.53 3.93Q49 47.72 49 49.1q0 1.2.48 1.92t1.5.72Zm19.2 1.32q-2.28 0-3.36-1.53t-1.08-3.75q0-2.7 1.26-5.64 1.2-2.76 3.06-5.04 1.86-2.28 4.02-3.69Q76.24 32 78.28 32q2.28 0 3.36 1.5t1.08 3.78q0 2.76-1.26 5.64-.72 1.62-2.04 3.57-1.32 1.95-3 3.57.36.66 1.02 1.11.66.45 1.8.45 1.44 0 2.73-1.2t2.37-2.91q1.08-1.71 1.92-3.45.84-1.74 1.38-2.82.18-.36.6-.36.24 0 .36.21t-.06.63q-.36.9-1.2 2.67t-2.04 3.66q-1.2 1.89-2.76 3.21-1.56 1.32-3.48 1.32-1.32 0-2.28-.45-.96-.45-1.56-1.11-1.26.96-2.52 1.5t-2.52.54Zm.9-1.32q1.62 0 3.48-1.56-.48-.72-.72-1.5t-.24-1.44q0-1.08.51-1.86t1.59-.78q.78 0 1.29.57t.51 1.29q0 .18-.03.33-.03.15-.09.33 1.02-1.38 1.92-3.24 1.98-4.26 1.98-7.02 0-1.38-.54-2.16-.54-.78-1.62-.78-1.26 0-2.73 1.08t-2.82 2.88q-1.35 1.8-2.37 4.02-.96 2.04-1.53 3.93-.57 1.89-.57 3.27 0 1.2.48 1.92t1.5.72Zm27.18 1.74q-1.62-.18-2.91-1.53t-1.77-3.63q-.06-.42-.09-.75t-.03-.75q0-2.4 1.08-3.87 1.08-1.47 1.98-1.53.96.06 2.34-.45t2.4-1.41q1.74-1.38 1.74-2.82 0-1.5-1.74-1.5-.96 0-2.43.66-1.47.66-3.39 2.28-2.4 2.04-4.98 5.46-.36.78-.84 2.31t-.81 3.15q-.33 1.62-.33 2.76 0 .9.3 1.2H85q-.66 0-.66-.54 0-.18.06-.3t.12-.48q.84-3.12 2.22-5.88 1.38-2.76 2.76-5.82-2.1 3.9-3.81 6.87t-2.61 3.81q-.12.12-.3.12-.24 0-.33-.3-.09-.3.15-.6 1.26-1.68 2.91-4.62 1.65-2.94 3.51-6.57 1.86-3.63 3.78-7.35 1.92-3.72 3.75-7.02 1.83-3.3 3.33-5.58 1.08-1.62 2.04-2.31t1.98-.69h.3q.54 0 1.23.18t1.29.06q-1.14.9-2.76 2.94-1.62 2.04-3.42 4.86-1.8 2.82-3.63 6-1.83 3.18-3.45 6.3-.6 1.2-1.14 2.52-.54 1.32-1.02 2.64 1.26-1.56 2.88-3.24 1.62-1.68 3.39-3.09t3.51-2.07q1.98-.72 3.3-.72 1.38 0 2.01.66.63.66.63 1.68 0 1.14-.9 2.73t-2.46 2.73q-1.32.9-2.76 1.56-1.44.66-3.42.84-.36.84-.51 1.71-.15.87-.15 1.71 0 2.34 1.08 4.11 1.08 1.77 2.82 1.77.84 0 1.83-.48.99-.48 2.07-1.62 1.2-1.2 2.43-3.42 1.23-2.22 2.49-4.86.24-.48.54-.48.36 0 .36.48 0 .24-.18.6-1.74 4.02-3.33 6.39t-3.06 3.54q-1.47 1.17-2.85 1.47-1.38.3-2.76.18Zm17.7-24.78q-.9 0-1.47-.63t-.57-1.53q0-1.14.9-1.98.9-.84 1.98-.84.96 0 1.56.6.6.6.6 1.44 0 1.14-.9 2.04-.9.9-2.1.9Zm-4.86 24.36q-2.22 0-3.12-1.29-.9-1.29-.9-2.97 0-.9.21-1.83t.51-1.71L111.82 35q.18-.48.18-.84 0-.6-.3-1.05l-.42-.63 3.3-.12q.9-.06 1.29.21t.39.63q0 .36-.42 1.32l-4.98 11.7-.33.75q-.33.75-.39.99-.18.9-.24 1.14-.06.24-.06.3v.48q0 .78.39 1.32t1.35.54q.6 0 1.38-.36.78-.36 1.14-.72 1.5-1.56 2.97-4.11 1.47-2.55 2.73-5.07.24-.6.6-.6.3 0 .3.42 0 .24-.18.72-.6 1.26-1.5 3.12t-2.13 3.69q-1.23 1.83-2.67 3.03-1.44 1.2-3.12 1.2Zm12.96.24q-2.22 0-3.99-1.44t-1.77-4.38q0-2.7 1.32-5.79t3.36-5.43q1.74-2.04 3.9-3.36 2.16-1.32 4.08-1.32 1.32 0 2.28.72 1.02.78 1.02 2.22 0 1.5-1.14 3.3-1.14 1.8-3.24 3.36-.9.66-2.28 1.26t-2.76.99q-1.38.39-2.28.39-.3.72-.57 1.92-.27 1.2-.27 2.46 0 1.5.6 2.7.6 1.2 2.22 1.2 1.98 0 3.6-1.14t2.88-2.85q1.26-1.71 2.13-3.45.87-1.74 1.41-2.94.36-.84.96-.84.3 0 .3.3 0 .24-.18.6-.84 1.8-1.8 3.81-.96 2.01-2.28 3.78-1.32 1.77-3.15 2.85-1.83 1.08-4.35 1.08Zm-1.08-10.56q.84 0 2.82-.63t3.6-2.01q1.56-1.38 2.4-3.03.84-1.65.84-2.79 0-1.32-.96-1.32-.72 0-1.98.96t-3.12 3.24q-1.14 1.44-2.16 3.12-1.02 1.68-1.44 2.46Z"/></svg>

<svg version="1.1" xmlns="http://www.w3.org/2000/svg" xmlns:xlink="http://www.w3.org/1999/xlink" role="img" width="131.22000122070312" height="54.540000915527344" viewBox="4.599999904632568 4.699999809265137 131.22000122070312 54.540000915527344"><title>Cookie</title><path fill="#000000" d="M24.04 59.24L24.04 59.24Q21.82 59.24 19.51 58.76Q17.20 58.28 14.92 57.32L14.92 57.32Q11.20 55.70 8.92 53.09Q6.64 50.48 5.62 47.18Q4.60 43.88 4.60 40.28L4.60 40.28Q4.60 36.50 5.53 32.72Q6.46 28.94 8.14 25.49Q9.82 22.04 11.92 19.34L11.92 19.34Q11.50 17.78 11.23 15.74Q10.96 13.70 10.96 11.60L10.96 11.60Q10.96 8.42 11.68 5.54L11.68 5.54Q11.92 4.70 12.52 4.70L12.52 4.70Q12.94 4.70 12.94 5.30L12.94 5.30Q12.94 5.66 12.88 5.84L12.88 5.84Q12.76 6.74 12.67 7.70Q12.58 8.66 12.58 9.68L12.58 9.68Q12.58 11.72 12.82 13.70Q13.06 15.68 13.36 17.36L13.36 17.36Q17.74 11.66 23.41 8.87Q29.08 6.08 35.32 6.08L35.32 6.08Q36.94 6.08 38.44 6.26L38.44 6.26Q43.24 6.80 46.30 8.63Q49.36 10.46 50.83 13.10Q52.30 15.74 52.30 18.68L52.30 18.68Q52.30 21.56 50.98 24.38Q49.66 27.20 47.14 29.51Q44.62 31.82 40.99 33.23Q37.36 34.64 32.80 34.64L32.80 34.64Q31.78 34.64 30.76 34.58Q29.74 34.52 28.54 34.34L28.54 34.34Q23.80 33.62 19.90 31.28Q16 28.94 13.60 24.08L13.60 24.08Q13.12 24.68 12.28 26.51Q11.44 28.34 10.60 30.92Q9.76 33.50 9.16 36.53Q8.56 39.56 8.56 42.62L8.56 42.62Q8.56 45.56 9.34 48.29Q10.12 51.02 12.04 53.09Q13.96 55.16 17.26 56.18L17.26 56.18Q18.88 56.66 20.62 56.90Q22.36 57.14 24.16 57.14L24.16 57.14Q27.64 57.14 31.06 56.24Q34.48 55.34 37.42 53.60L37.42 53.60Q41.32 51.32 43.42 48.29Q45.52 45.26 47.32 41.48L47.32 41.48Q47.56 40.88 47.98 40.88L47.98 40.88Q48.28 40.88 48.28 41.30L48.28 41.30Q48.28 41.60 48.04 42.02L48.04 42.02Q46.78 44.66 45.52 46.85Q44.26 49.04 42.58 50.90Q40.90 52.76 38.32 54.56L38.32 54.56Q35.38 56.60 31.72 57.92Q28.06 59.24 24.04 59.24ZM32.44 33.08L32.44 33.08Q36.58 33.08 39.76 31.85Q42.94 30.62 45.13 28.61Q47.32 26.60 48.43 24.14Q49.54 21.68 49.54 19.16L49.54 19.16Q49.54 16.70 48.40 14.48Q47.26 12.26 44.95 10.67Q42.64 9.08 39.04 8.60L39.04 8.60Q37.72 8.42 36.40 8.42L36.40 8.42Q32.32 8.42 28.39 10.13Q24.46 11.84 20.98 14.93Q17.50 18.02 14.80 22.16L14.80 22.16Q16.90 27.38 20.71 29.84Q24.52 32.30 29.44 32.90L29.44 32.90Q31 33.08 32.44 33.08ZM50.08 53.06L50.08 53.06Q47.80 53.06 46.72 51.53Q45.64 50.00 45.64 47.78L45.64 47.78Q45.64 45.08 46.90 42.14L46.90 42.14Q48.10 39.38 49.96 37.10Q51.82 34.82 53.98 33.41Q56.14 32.00 58.18 32.00L58.18 32.00Q60.46 32.00 61.54 33.50Q62.62 35 62.62 37.28L62.62 37.28Q62.62 40.04 61.36 42.92L61.36 42.92Q60.64 44.54 59.32 46.49Q58 48.44 56.32 50.06L56.32 50.06Q56.68 50.72 57.34 51.17Q58 51.62 59.14 51.62L59.14 51.62Q60.58 51.62 61.87 50.42Q63.16 49.22 64.24 47.51Q65.32 45.80 66.16 44.06Q67 42.32 67.54 41.24L67.54 41.24Q67.72 40.88 68.14 40.88L68.14 40.88Q68.38 40.88 68.50 41.09Q68.62 41.30 68.44 41.72L68.44 41.72Q68.08 42.62 67.24 44.39Q66.40 46.16 65.20 48.05Q64 49.94 62.44 51.26Q60.88 52.58 58.96 52.58L58.96 52.58Q57.64 52.58 56.68 52.13Q55.72 51.68 55.12 51.02L55.12 51.02Q53.86 51.98 52.60 52.52Q51.34 53.06 50.08 53.06ZM50.98 51.74L50.98 51.74Q52.60 51.74 54.46 50.18L54.46 50.18Q53.98 49.46 53.74 48.68Q53.50 47.90 53.50 47.24L53.50 47.24Q53.50 46.16 54.01 45.38Q54.52 44.60 55.60 44.60L55.60 44.60Q56.38 44.60 56.89 45.17Q57.40 45.74 57.40 46.46L57.40 46.46Q57.40 46.64 57.37 46.79Q57.34 46.94 57.28 47.12L57.28 47.12Q58.30 45.74 59.20 43.88L59.20 43.88Q61.18 39.62 61.18 36.86L61.18 36.86Q61.18 35.48 60.64 34.70Q60.10 33.92 59.02 33.92L59.02 33.92Q57.76 33.92 56.29 35Q54.82 36.08 53.47 37.88Q52.12 39.68 51.10 41.90L51.10 41.90Q50.14 43.94 49.57 45.83Q49 47.72 49 49.10L49 49.10Q49 50.30 49.48 51.02Q49.96 51.74 50.98 51.74ZM70.18 53.06L70.18 53.06Q67.90 53.06 66.82 51.53Q65.74 50.00 65.74 47.78L65.74 47.78Q65.74 45.08 67 42.14L67 42.14Q68.20 39.38 70.06 37.10Q71.92 34.82 74.08 33.41Q76.24 32.00 78.28 32.00L78.28 32.00Q80.56 32.00 81.64 33.50Q82.72 35 82.72 37.28L82.72 37.28Q82.72 40.04 81.46 42.92L81.46 42.92Q80.74 44.54 79.42 46.49Q78.10 48.44 76.42 50.06L76.42 50.06Q76.78 50.72 77.44 51.17Q78.10 51.62 79.24 51.62L79.24 51.62Q80.68 51.62 81.97 50.42Q83.26 49.22 84.34 47.51Q85.42 45.80 86.26 44.06Q87.10 42.32 87.64 41.24L87.64 41.24Q87.82 40.88 88.24 40.88L88.24 40.88Q88.48 40.88 88.60 41.09Q88.72 41.30 88.54 41.72L88.54 41.72Q88.18 42.62 87.34 44.39Q86.50 46.16 85.30 48.05Q84.10 49.94 82.54 51.26Q80.98 52.58 79.06 52.58L79.06 52.58Q77.74 52.58 76.78 52.13Q75.82 51.68 75.22 51.02L75.22 51.02Q73.96 51.98 72.70 52.52Q71.44 53.06 70.18 53.06ZM71.08 51.74L71.08 51.74Q72.70 51.74 74.56 50.18L74.56 50.18Q74.08 49.46 73.84 48.68Q73.60 47.90 73.60 47.24L73.60 47.24Q73.60 46.16 74.11 45.38Q74.62 44.60 75.70 44.60L75.70 44.60Q76.48 44.60 76.99 45.17Q77.50 45.74 77.50 46.46L77.50 46.46Q77.50 46.64 77.47 46.79Q77.44 46.94 77.38 47.12L77.38 47.12Q78.40 45.74 79.30 43.88L79.30 43.88Q81.28 39.62 81.28 36.86L81.28 36.86Q81.28 35.48 80.74 34.70Q80.20 33.92 79.12 33.92L79.12 33.92Q77.86 33.92 76.39 35Q74.92 36.08 73.57 37.88Q72.22 39.68 71.20 41.90L71.20 41.90Q70.24 43.94 69.67 45.83Q69.10 47.72 69.10 49.10L69.10 49.10Q69.10 50.30 69.58 51.02Q70.06 51.74 71.08 51.74ZM98.26 53.48L98.26 53.48Q96.64 53.30 95.35 51.95Q94.06 50.60 93.58 48.32L93.58 48.32Q93.52 47.90 93.49 47.57Q93.46 47.24 93.46 46.82L93.46 46.82Q93.46 44.42 94.54 42.95Q95.62 41.48 96.52 41.42L96.52 41.42Q97.48 41.48 98.86 40.97Q100.24 40.46 101.26 39.56L101.26 39.56Q103 38.18 103 36.74L103 36.74Q103 35.24 101.26 35.24L101.26 35.24Q100.30 35.24 98.83 35.90Q97.36 36.56 95.44 38.18L95.44 38.18Q93.04 40.22 90.46 43.64L90.46 43.64Q90.10 44.42 89.62 45.95Q89.14 47.48 88.81 49.10Q88.48 50.72 88.48 51.86L88.48 51.86Q88.48 52.76 88.78 53.06L88.78 53.06L85.00 53.06Q84.34 53.06 84.34 52.52L84.34 52.52Q84.34 52.34 84.40 52.22Q84.46 52.10 84.52 51.74L84.52 51.74Q85.36 48.62 86.74 45.86Q88.12 43.10 89.50 40.04L89.50 40.04Q87.40 43.94 85.69 46.91Q83.98 49.88 83.08 50.72L83.08 50.72Q82.96 50.84 82.78 50.84L82.78 50.84Q82.54 50.84 82.45 50.54Q82.36 50.24 82.60 49.94L82.60 49.94Q83.86 48.26 85.51 45.32Q87.16 42.38 89.02 38.75Q90.88 35.12 92.80 31.40Q94.72 27.68 96.55 24.38Q98.38 21.08 99.88 18.80L99.88 18.80Q100.96 17.18 101.92 16.49Q102.88 15.80 103.90 15.80L103.90 15.80L104.20 15.80Q104.74 15.80 105.43 15.98Q106.12 16.16 106.72 16.04L106.72 16.04Q105.58 16.94 103.96 18.98Q102.34 21.02 100.54 23.84Q98.74 26.66 96.91 29.84Q95.08 33.02 93.46 36.14L93.46 36.14Q92.86 37.34 92.32 38.66Q91.78 39.98 91.30 41.30L91.30 41.30Q92.56 39.74 94.18 38.06Q95.80 36.38 97.57 34.97Q99.34 33.56 101.08 32.90L101.08 32.90Q103.06 32.18 104.38 32.18L104.38 32.18Q105.76 32.18 106.39 32.84Q107.02 33.50 107.02 34.52L107.02 34.52Q107.02 35.66 106.12 37.25Q105.22 38.84 103.66 39.98L103.66 39.98Q102.34 40.88 100.90 41.54Q99.46 42.20 97.48 42.38L97.48 42.38Q97.12 43.22 96.97 44.09Q96.82 44.96 96.82 45.80L96.82 45.80Q96.82 48.14 97.90 49.91Q98.98 51.68 100.72 51.68L100.72 51.68Q101.56 51.68 102.55 51.20Q103.54 50.72 104.62 49.58L104.62 49.58Q105.82 48.38 107.05 46.16Q108.28 43.94 109.54 41.30L109.54 41.30Q109.78 40.82 110.08 40.82L110.08 40.82Q110.44 40.82 110.44 41.30L110.44 41.30Q110.44 41.54 110.26 41.90L110.26 41.90Q108.52 45.92 106.93 48.29Q105.34 50.66 103.87 51.83Q102.40 53.00 101.02 53.30Q99.64 53.60 98.26 53.48ZM115.96 28.70L115.96 28.70Q115.06 28.70 114.49 28.07Q113.92 27.44 113.92 26.54L113.92 26.54Q113.92 25.40 114.82 24.56Q115.72 23.72 116.80 23.72L116.80 23.72Q117.76 23.72 118.36 24.32Q118.96 24.92 118.96 25.76L118.96 25.76Q118.96 26.90 118.06 27.80Q117.16 28.70 115.96 28.70ZM111.10 53.06L111.10 53.06Q108.88 53.06 107.98 51.77Q107.08 50.48 107.08 48.80L107.08 48.80Q107.08 47.90 107.29 46.97Q107.50 46.04 107.80 45.26L107.80 45.26L111.82 35Q112 34.52 112 34.16L112 34.16Q112 33.56 111.70 33.11Q111.40 32.66 111.28 32.48L111.28 32.48L114.58 32.36Q115.48 32.30 115.87 32.57Q116.26 32.84 116.26 33.20L116.26 33.20Q116.26 33.56 115.84 34.52L115.84 34.52L110.86 46.22Q110.86 46.22 110.53 46.97Q110.20 47.72 110.14 47.96L110.14 47.96Q109.96 48.86 109.90 49.10Q109.84 49.34 109.84 49.40Q109.84 49.46 109.84 49.88L109.84 49.88Q109.84 50.66 110.23 51.20Q110.62 51.74 111.58 51.74L111.58 51.74Q112.18 51.74 112.96 51.38Q113.74 51.02 114.10 50.66L114.10 50.66Q115.60 49.10 117.07 46.55Q118.54 44.00 119.80 41.48L119.80 41.48Q120.04 40.88 120.40 40.88L120.40 40.88Q120.70 40.88 120.70 41.30L120.70 41.30Q120.70 41.54 120.52 42.02L120.52 42.02Q119.92 43.28 119.02 45.14Q118.12 47.00 116.89 48.83Q115.66 50.66 114.22 51.86Q112.78 53.06 111.10 53.06ZM124.06 53.30L124.06 53.30Q121.84 53.30 120.07 51.86Q118.30 50.42 118.30 47.48L118.30 47.48Q118.30 44.78 119.62 41.69Q120.94 38.60 122.98 36.26L122.98 36.26Q124.72 34.22 126.88 32.90Q129.04 31.58 130.96 31.58L130.96 31.58Q132.28 31.58 133.24 32.30L133.24 32.30Q134.26 33.08 134.26 34.52L134.26 34.52Q134.26 36.02 133.12 37.82Q131.98 39.62 129.88 41.18L129.88 41.18Q128.98 41.84 127.60 42.44Q126.22 43.04 124.84 43.43Q123.46 43.82 122.56 43.82L122.56 43.82Q122.26 44.54 121.99 45.74Q121.72 46.94 121.72 48.20L121.72 48.20Q121.72 49.70 122.32 50.90Q122.92 52.10 124.54 52.10L124.54 52.10Q126.52 52.10 128.14 50.96Q129.76 49.82 131.02 48.11Q132.28 46.40 133.15 44.66Q134.02 42.92 134.56 41.72L134.56 41.72Q134.92 40.88 135.52 40.88L135.52 40.88Q135.82 40.88 135.82 41.18L135.82 41.18Q135.82 41.42 135.64 41.78L135.64 41.78Q134.80 43.58 133.84 45.59Q132.88 47.60 131.56 49.37Q130.24 51.14 128.41 52.22Q126.58 53.30 124.06 53.30ZM122.98 42.74L122.98 42.74Q123.82 42.74 125.80 42.11Q127.78 41.48 129.40 40.10L129.40 40.10Q130.96 38.72 131.80 37.07Q132.64 35.42 132.64 34.28L132.64 34.28Q132.64 32.96 131.68 32.96L131.68 32.96Q130.96 32.96 129.70 33.92Q128.44 34.88 126.58 37.16L126.58 37.16Q125.44 38.60 124.42 40.28Q123.40 41.96 122.98 42.74Z"></path></svg>
